app/static/images/SVGs/ruby.svg

<svg enable-background="new 0 0 591.704 591.704" viewBox="0 0 591.704 591.704" xmlns="http://www.w3.org/2000/svg"><path d="m590.045 126.94-81.6-122.4c-2.04-2.856-5.1-4.488-8.568-4.488h-408c-3.468 0-6.528 1.632-8.568 4.488l-81.6 122.4c-2.244 3.264-2.244 7.752-.204 11.22l285.6 448.8c1.836 2.856 5.1 4.692 8.568 4.692s6.732-1.836 8.568-4.692l285.6-448.8c2.448-3.468 2.448-7.752.204-11.22zm-289.068 10.812h147.9l-147.9 414.324zm0-10.2v-107.1h189.924l-38.352 107.1zm-10.2 0h-151.572l-38.352-107.1h189.924zm0 10.2v414.324l-147.9-414.324zm-22.644 381.072-242.556-381.072h106.284zm191.556-381.072h106.284l-242.352 381.072zm106.08-10.2h-102.408l35.7-99.96zm-473.076-99.96 35.7 99.96h-102.408z"/></svg>

<?xml version="1.0" encoding="iso-8859-1"?>
<!-- Generator: Adobe Illustrator 18.1.1, SVG Export Plug-In . SVG Version: 6.00 Build 0)  -->
<svg version="1.1" id="Capa_1" xmlns="http://www.w3.org/2000/svg" xmlns:xlink="http://www.w3.org/1999/xlink" x="0px" y="0px"
	 viewBox="0 0 591.704 591.704" style="enable-background:new 0 0 591.704 591.704;" xml:space="preserve">
<g>
	<g>
		<path d="M590.045,126.94l-81.6-122.4c-2.04-2.856-5.1-4.488-8.568-4.488h-408c-3.468,0-6.528,1.632-8.568,4.488l-81.6,122.4
			c-2.244,3.264-2.244,7.752-0.204,11.22l285.6,448.8c1.836,2.856,5.1,4.692,8.568,4.692s6.732-1.836,8.568-4.692l285.6-448.8
			C592.289,134.692,592.289,130.408,590.045,126.94z M300.977,137.752h147.9l-147.9,414.324V137.752z M300.977,127.552v-107.1
			h189.924l-38.352,107.1H300.977z M290.777,127.552H139.205l-38.352-107.1h189.924V127.552z M290.777,137.752v414.324
			l-147.9-414.324H290.777z M268.133,518.824L25.577,137.752h106.284L268.133,518.824z M459.689,137.752h106.284L323.621,518.824
			L459.689,137.752z M565.769,127.552H463.361l35.7-99.96L565.769,127.552z M92.693,27.592l35.7,99.96H25.985L92.693,27.592z"/>
	</g>
</g>
<g>
</g>
<g>
</g>
<g>
</g>
<g>
</g>
<g>
</g>
<g>
</g>
<g>
</g>
<g>
</g>
<g>
</g>
<g>
</g>
<g>
</g>
<g>
</g>
<g>
</g>
<g>
</g>
<g>
</g>
</svg>
